packages/web/app/assets/images/tamanu_logo_white_no_text.svg

<svg height="26" viewBox="0 0 26 26" width="26" xmlns="http://www.w3.org/2000/svg"><g clip-rule="evenodd"><path d="m11.9286 4.19361h2.1464v2.22371h2.1467v2.22371h-2.1467v2.22367h-2.1464v-2.22367h-2.14637v-2.22371h2.14637z" fill="#fff" fill-rule="evenodd"/><path d="m7.25029 7.39756c0 1.57705.5842 3.18244 1.69648 4.47964.99884 1.1652 2.15583 2.3206 3.31273 3.4763l.7429.7428.7432-.7428c1.1566-1.1557 2.3136-2.3111 3.3124-3.4763 1.1123-1.2972 1.6965-2.90289 1.6965-4.47964 0-1.49029-.5299-2.95896-1.6392-4.10826-1.1352-1.1764-2.6242-1.76491-4.1129-1.76491s-2.9774.58851-4.11294 1.76491c-1.10904 1.1493-1.63917 2.61797-1.63917 4.10826zm5.75211 10.83144c-1.7177-1.7801-3.62747-3.5596-5.15321-5.3392-2.67329-3.11753-2.84637-7.72965 0-10.67826 2.84611-2.948607 7.46031-2.948607 10.30671 0 2.8461 2.94861 2.673 7.56043 0 10.67826-1.5264 1.7796-3.4359 3.5591-5.1535 5.3392z" fill="#fc0" fill-rule="evenodd"/><path d="m14.8666 21.3525-.7173-.8437c.6118.0256 1.1822-.5215 1.7802-.0316.8881.7276 1.8167 1.2488 3.8444 1.6285.3353.0627-.1855.4789-1.8814.3364-1.4264-.1197.1138.3139-1.6794.1419-.6233-.06-.2897.0901.8496.3129.571.1118.3694.6287-2.7339.4299-2.1052-.1345-2.5037-.0593-5.26808.0615-.92832.0405-2.4094-.3885-.86867-.7109.84898-.1775-2.06851-.3662-2.06851-.6052 0-.2457 1.437-.5523 2.07615-.7529 1.20397-.3782 2.19961-.9496 2.65041-1.3095 1.5992-1.2768 1.9697.2838 4.0165 1.3427z" fill="#fff"/><g fill="#fc0" fill-rule="evenodd"><path d="m23.9665 22.4069c1.2874.3626 2.0335.7934 2.0335 1.2555 0 1.2912-5.8206 2.3376-13 2.3376-7.17971 0-13-1.0464-13-2.3376 0-.4621.746417-.8929 2.03355-1.2555-.6518.2481-1.01472.5227-1.01472.8113 0 1.1113 5.36421 2.0121 11.98117 2.0121 6.617 0 11.9812-.9008 11.9812-2.0121 0-.2886-.3627-.5632-1.0147-.8113z"/><path d="m21.7738 22.2699c1.0298.2405 1.6266.5261 1.6266.832 0 .8556-4.6566 1.5491-10.4005 1.5491-5.74389 0-10.40078-.6935-10.40078-1.5491 0-.3059.59714-.5915 1.62713-.832-.52161.1647-.81195.3464-.81195.5379 0 .7365 4.29162 1.3332 9.5856 1.3332 5.294 0 9.5856-.5967 9.5856-1.3332 0-.1915-.2906-.3732-.8117-.5379z"/></g></g></svg>

<svg width="26" height="26" viewBox="0 0 26 26" xmlns="http://www.w3.org/2000/svg">
<path fill-rule="evenodd" clip-rule="evenodd" d="M11.9286 4.19361H14.075V6.41732H16.2217V8.64103H14.075V10.8647H11.9286V8.64103H9.78223V6.41732H11.9286V4.19361Z" fill="white"/>
<path fill-rule="evenodd" clip-rule="evenodd" d="M7.25029 7.39756C7.25029 8.97461 7.83449 10.58 8.94677 11.8772C9.94561 13.0424 11.1026 14.1978 12.2595 15.3535L13.0024 16.0963L13.7456 15.3535C14.9022 14.1978 16.0592 13.0424 17.058 11.8772C18.1703 10.58 18.7545 8.97431 18.7545 7.39756C18.7545 5.90727 18.2246 4.4386 17.1153 3.2893C15.9801 2.1129 14.4911 1.52439 13.0024 1.52439C11.5137 1.52439 10.025 2.1129 8.88946 3.2893C7.78042 4.4386 7.25029 5.90727 7.25029 7.39756ZM13.0024 18.229C11.2847 16.4489 9.37493 14.6694 7.84919 12.8898C5.1759 9.77227 5.00282 5.16015 7.84919 2.21154C10.6953 -0.737067 15.3095 -0.737067 18.1559 2.21154C21.002 5.16015 20.8289 9.77197 18.1559 12.8898C16.6295 14.6694 14.72 16.4489 13.0024 18.229Z" fill="#FFCC00"/>
<path clip-rule="evenodd" d="M14.8666 21.3525L14.1493 20.5088C14.7611 20.5344 15.3315 19.9873 15.9295 20.4772C16.8176 21.2048 17.7462 21.726 19.7739 22.1057C20.1092 22.1684 19.5884 22.5846 17.8925 22.4421C16.4661 22.3224 18.0063 22.756 16.2131 22.584C15.5898 22.524 15.9234 22.6741 17.0627 22.8969C17.6337 23.0087 17.4321 23.5256 14.3288 23.3268C12.2236 23.1923 11.8251 23.2675 9.06072 23.3883C8.1324 23.4288 6.65132 22.9998 8.19205 22.6774C9.04103 22.4999 6.12354 22.3112 6.12354 22.0722C6.12354 21.8265 7.56054 21.5199 8.19969 21.3193C9.40366 20.9411 10.3993 20.3697 10.8501 20.0098C12.4493 18.733 12.8198 20.2936 14.8666 21.3525Z" fill="white"/>
<path fill-rule="evenodd" clip-rule="evenodd" d="M23.9665 22.4069C25.2539 22.7695 26 23.2003 26 23.6624C26 24.9536 20.1794 26 13 26C5.82029 26 0 24.9536 0 23.6624C0 23.2003 0.746417 22.7695 2.03355 22.4069C1.38175 22.655 1.01883 22.9296 1.01883 23.2182C1.01883 24.3295 6.38304 25.2303 13 25.2303C19.617 25.2303 24.9812 24.3295 24.9812 23.2182C24.9812 22.9296 24.6185 22.655 23.9665 22.4069Z" fill="#FFCC00"/><path fill-rule="evenodd" clip-rule="evenodd" d="M21.7738 22.2699C22.8036 22.5104 23.4004 22.796 23.4004 23.1019C23.4004 23.9575 18.7438 24.651 12.9999 24.651C7.25601 24.651 2.59912 23.9575 2.59912 23.1019C2.59912 22.796 3.19626 22.5104 4.22625 22.2699C3.70464 22.4346 3.4143 22.6163 3.4143 22.8078C3.4143 23.5443 7.70592 24.141 12.9999 24.141C18.2939 24.141 22.5855 23.5443 22.5855 22.8078C22.5855 22.6163 22.2949 22.4346 21.7738 22.2699Z" fill="#FFCC00"/>
</svg>
